assets/components_previews/data-display/light/moment.svg

<svg xmlns="http://www.w3.org/2000/svg" width="320" height="232" fill="none" viewBox="0 0 320 232"><g filter="url(#a)"><rect width="102" height="24" x="109" y="104" fill="#AA99EC" rx="12"/><path fill="#FDFCFE" d="M193.8 121.14c-2.352 0-3.948-1.512-3.948-3.738 0-2.212 1.582-3.682 3.948-3.682 2.38 0 3.948 1.47 3.948 3.682 0 2.226-1.596 3.738-3.948 3.738m0-1.652c.98 0 1.764-.784 1.764-2.1 0-1.288-.77-2.016-1.764-2.016s-1.764.742-1.764 2.016c0 1.316.784 2.1 1.764 2.1m-8.889 4.522c-1.988 0-3.29-.896-3.514-2.338h1.988c.154.364.658.546 1.428.546 1.26 0 1.82-.476 1.82-1.498v-1.148c-.336.826-1.204 1.316-2.366 1.316-1.904 0-3.15-1.4-3.15-3.556 0-2.17 1.302-3.612 3.262-3.612 1.162 0 2.002.504 2.296 1.372v-1.232h2.058v6.832c0 2.058-1.456 3.318-3.822 3.318m.084-4.732c.98 0 1.666-.7 1.666-1.974s-.686-1.974-1.694-1.974c-.98 0-1.666.714-1.666 1.988s.686 1.96 1.694 1.96m-9.206 1.862c-1.414 0-2.324-.77-2.324-1.974 0-1.33 1.05-2.142 2.842-2.394l1.764-.252v-.364c0-.574-.392-.924-1.134-.924-.714 0-1.134.252-1.26.714h-2.002c.182-1.288 1.344-2.226 3.332-2.226 2.044 0 3.164.938 3.164 2.66v3.15c0 .476.056.924.21 1.47h-2.1c-.098-.336-.14-.7-.154-1.162-.448.854-1.26 1.302-2.338 1.302m-.224-2.254c0 .462.364.714.924.714.882 0 1.582-.56 1.582-1.19v-.658l-1.414.21c-.756.112-1.092.406-1.092.924m-8.615 2.254c-2.086 0-3.388-.882-3.5-2.366h1.876c.084.63.644.966 1.624.966.868 0 1.26-.252 1.26-.728 0-.35-.196-.532-.812-.658l-1.148-.238c-1.708-.35-2.478-1.05-2.478-2.198 0-1.386 1.12-2.198 3.024-2.198 1.89 0 3.066.798 3.178 2.142h-1.876c-.07-.49-.532-.742-1.344-.742-.742 0-1.106.224-1.106.616 0 .336.266.518.966.658l1.288.266c1.442.294 2.184 1.162 2.184 2.268 0 1.4-1.134 2.212-3.136 2.212m-8.38-.14v-7.14h2.058v1.316c.392-.952 1.12-1.456 2.114-1.456.154 0 .294.014.392.056v1.96a2 2 0 0 0-.504-.042c-1.344 0-1.96.42-1.96 1.582V121zm-6.248.14c-1.526 0-2.394-1.092-2.394-2.45v-4.83h2.1v4.424c0 .784.406 1.176 1.12 1.176.938 0 1.638-.714 1.638-1.764v-3.836h2.1V121h-2.058v-1.302c-.49.882-1.344 1.442-2.506 1.442m-7.371 0c-2.352 0-3.948-1.512-3.948-3.738 0-2.212 1.582-3.682 3.948-3.682 2.38 0 3.948 1.47 3.948 3.682 0 2.226-1.596 3.738-3.948 3.738m0-1.652c.98 0 1.764-.784 1.764-2.1 0-1.288-.77-2.016-1.764-2.016s-1.764.742-1.764 2.016c0 1.316.784 2.1 1.764 2.1M132.895 121v-10.08h2.1v4.172c.504-.84 1.344-1.372 2.52-1.372 1.582 0 2.45.952 2.45 2.45V121h-2.1v-4.424c0-.784-.406-1.176-1.176-1.176-.994 0-1.694.714-1.694 1.764V121zm-11.045 0v-1.68c3.696-3.01 4.83-4.2 4.83-5.586 0-.812-.462-1.302-1.246-1.302-.826 0-1.4.532-1.526 1.414h-2.156c.21-1.904 1.638-3.066 3.766-3.066 2.156 0 3.444 1.176 3.444 3.15 0 1.736-.924 3.024-3.92 5.418h4.116V121z"/></g><defs><filter id="a" width="142" height="64" x="89" y="96" color-interpolation-filters="sRGB" filterUnits="userSpaceOnUse"><feFlood flood-opacity="0" result="BackgroundImageFix"/><feColorMatrix in="SourceAlpha" result="hardAlpha" values="0 0 0 0 0 0 0 0 0 0 0 0 0 0 0 0 0 0 127 0"/><feOffset dy="12"/><feGaussianBlur stdDeviation="10"/><feComposite in2="hardAlpha" operator="out"/><feColorMatrix values="0 0 0 0 0 0 0 0 0 0 0 0 0 0 0 0 0 0 0.03 0"/><feBlend in2="BackgroundImageFix" result="effect1_dropShadow_10060_19502"/><feColorMatrix in="SourceAlpha" result="hardAlpha" values="0 0 0 0 0 0 0 0 0 0 0 0 0 0 0 0 0 0 127 0"/><feOffset dy="2"/><feGaussianBlur stdDeviation="3"/><feComposite in2="hardAlpha" operator="out"/><feColorMatrix values="0 0 0 0 0 0 0 0 0 0 0 0 0 0 0 0 0 0 0.05 0"/><feBlend in2="effect1_dropShadow_10060_19502" result="effect2_dropShadow_10060_19502"/><feBlend in="SourceGraphic" in2="effect2_dropShadow_10060_19502" result="shape"/></filter></defs></svg>

<svg width="320" height="232" viewBox="0 0 320 232" fill="none" xmlns="http://www.w3.org/2000/svg">
<g filter="url(#filter0_dd_10060_19502)">
<rect x="109" y="104" width="102" height="24" rx="12" fill="#AA99EC"/>
<path d="M193.8 121.14C191.448 121.14 189.852 119.628 189.852 117.402C189.852 115.19 191.434 113.72 193.8 113.72C196.18 113.72 197.748 115.19 197.748 117.402C197.748 119.628 196.152 121.14 193.8 121.14ZM193.8 119.488C194.78 119.488 195.564 118.704 195.564 117.388C195.564 116.1 194.794 115.372 193.8 115.372C192.806 115.372 192.036 116.114 192.036 117.388C192.036 118.704 192.82 119.488 193.8 119.488Z" fill="#FDFCFE"/>
<path d="M184.911 124.01C182.923 124.01 181.621 123.114 181.397 121.672H183.385C183.539 122.036 184.043 122.218 184.813 122.218C186.073 122.218 186.633 121.742 186.633 120.72V119.572C186.297 120.398 185.429 120.888 184.267 120.888C182.363 120.888 181.117 119.488 181.117 117.332C181.117 115.162 182.419 113.72 184.379 113.72C185.541 113.72 186.381 114.224 186.675 115.092V113.86H188.733V120.692C188.733 122.75 187.277 124.01 184.911 124.01ZM184.995 119.278C185.975 119.278 186.661 118.578 186.661 117.304C186.661 116.03 185.975 115.33 184.967 115.33C183.987 115.33 183.301 116.044 183.301 117.318C183.301 118.592 183.987 119.278 184.995 119.278Z" fill="#FDFCFE"/>
<path d="M175.789 121.14C174.375 121.14 173.465 120.37 173.465 119.166C173.465 117.836 174.515 117.024 176.307 116.772L178.071 116.52V116.156C178.071 115.582 177.679 115.232 176.937 115.232C176.223 115.232 175.803 115.484 175.677 115.946H173.675C173.857 114.658 175.019 113.72 177.007 113.72C179.051 113.72 180.171 114.658 180.171 116.38V119.53C180.171 120.006 180.227 120.454 180.381 121H178.281C178.183 120.664 178.141 120.3 178.127 119.838C177.679 120.692 176.867 121.14 175.789 121.14ZM175.565 118.886C175.565 119.348 175.929 119.6 176.489 119.6C177.371 119.6 178.071 119.04 178.071 118.41V117.752L176.657 117.962C175.901 118.074 175.565 118.368 175.565 118.886Z" fill="#FDFCFE"/>
<path d="M166.95 121.14C164.864 121.14 163.562 120.258 163.45 118.774H165.326C165.41 119.404 165.97 119.74 166.95 119.74C167.818 119.74 168.21 119.488 168.21 119.012C168.21 118.662 168.014 118.48 167.398 118.354L166.25 118.116C164.542 117.766 163.772 117.066 163.772 115.918C163.772 114.532 164.892 113.72 166.796 113.72C168.686 113.72 169.862 114.518 169.974 115.862H168.098C168.028 115.372 167.566 115.12 166.754 115.12C166.012 115.12 165.648 115.344 165.648 115.736C165.648 116.072 165.914 116.254 166.614 116.394L167.902 116.66C169.344 116.954 170.086 117.822 170.086 118.928C170.086 120.328 168.952 121.14 166.95 121.14Z" fill="#FDFCFE"/>
<path d="M158.57 121V113.86H160.628V115.176C161.02 114.224 161.748 113.72 162.742 113.72C162.896 113.72 163.036 113.734 163.134 113.776V115.736C163.036 115.708 162.868 115.694 162.63 115.694C161.286 115.694 160.67 116.114 160.67 117.276V121H158.57Z" fill="#FDFCFE"/>
<path d="M152.322 121.14C150.796 121.14 149.928 120.048 149.928 118.69V113.86H152.028V118.284C152.028 119.068 152.434 119.46 153.148 119.46C154.086 119.46 154.786 118.746 154.786 117.696V113.86H156.886V121H154.828V119.698C154.338 120.58 153.484 121.14 152.322 121.14Z" fill="#FDFCFE"/>
<path d="M144.951 121.14C142.599 121.14 141.003 119.628 141.003 117.402C141.003 115.19 142.585 113.72 144.951 113.72C147.331 113.72 148.899 115.19 148.899 117.402C148.899 119.628 147.303 121.14 144.951 121.14ZM144.951 119.488C145.931 119.488 146.715 118.704 146.715 117.388C146.715 116.1 145.945 115.372 144.951 115.372C143.957 115.372 143.187 116.114 143.187 117.388C143.187 118.704 143.971 119.488 144.951 119.488Z" fill="#FDFCFE"/>
<path d="M132.895 121V110.92H134.995V115.092C135.499 114.252 136.339 113.72 137.515 113.72C139.097 113.72 139.965 114.672 139.965 116.17V121H137.865V116.576C137.865 115.792 137.459 115.4 136.689 115.4C135.695 115.4 134.995 116.114 134.995 117.164V121H132.895Z" fill="#FDFCFE"/>
<path d="M121.85 121V119.32C125.546 116.31 126.68 115.12 126.68 113.734C126.68 112.922 126.218 112.432 125.434 112.432C124.608 112.432 124.034 112.964 123.908 113.846H121.752C121.962 111.942 123.39 110.78 125.518 110.78C127.674 110.78 128.962 111.956 128.962 113.93C128.962 115.666 128.038 116.954 125.042 119.348H129.158V121H121.85Z" fill="#FDFCFE"/>
</g>
<defs>
<filter id="filter0_dd_10060_19502" x="89" y="96" width="142" height="64" filterUnits="userSpaceOnUse" color-interpolation-filters="sRGB">
<feFlood flood-opacity="0" result="BackgroundImageFix"/>
<feColorMatrix in="SourceAlpha" type="matrix" values="0 0 0 0 0 0 0 0 0 0 0 0 0 0 0 0 0 0 127 0" result="hardAlpha"/>
<feOffset dy="12"/>
<feGaussianBlur stdDeviation="10"/>
<feComposite in2="hardAlpha" operator="out"/>
<feColorMatrix type="matrix" values="0 0 0 0 0 0 0 0 0 0 0 0 0 0 0 0 0 0 0.03 0"/>
<feBlend mode="normal" in2="BackgroundImageFix" result="effect1_dropShadow_10060_19502"/>
<feColorMatrix in="SourceAlpha" type="matrix" values="0 0 0 0 0 0 0 0 0 0 0 0 0 0 0 0 0 0 127 0" result="hardAlpha"/>
<feOffset dy="2"/>
<feGaussianBlur stdDeviation="3"/>
<feComposite in2="hardAlpha" operator="out"/>
<feColorMatrix type="matrix" values="0 0 0 0 0 0 0 0 0 0 0 0 0 0 0 0 0 0 0.05 0"/>
<feBlend mode="normal" in2="effect1_dropShadow_10060_19502" result="effect2_dropShadow_10060_19502"/>
<feBlend mode="normal" in="SourceGraphic" in2="effect2_dropShadow_10060_19502" result="shape"/>
</filter>
</defs>
</svg>
